src/assets/images/logos/logo-03.svg

<svg height="40" viewBox="0 0 175 40" width="175" xmlns="http://www.w3.org/2000/svg" xmlns:xlink="http://www.w3.org/1999/xlink"><defs><path id="a" d="m62.705 17.14c-.2200011-.2800014-.5074982-.5024992-.8625-.6675s-.6974983-.2475-1.0275-.2475c-.1700008 0-.3424991.0149999-.5175.045-.1750009.0300002-.3324993.0874996-.4725.1725s-.2574995.1949993-.3525.33-.1425.3074989-.1425.5175c0 .1800009.0374996.3299994.1125.45s.1849993.2249995.33.315.317499.1724996.5175.2475.4249988.1524996.675.2325c.3600018.1200006.7349981.2524993 1.125.3975.390002.1450007.7449984.3374988 1.065.5775s.584999.5374982.795.8925c.2100011.3550018.315.7974974.315 1.3275 0 .610003-.1124989 1.1374978-.3375 1.5825s-.5274981.8124986-.9075 1.1025c-.3800019.2900015-.8149975.5049993-1.305.645-.4900024.1400007-.9949974.21-1.515.21-.7600038 0-1.4949964-.1324987-2.205-.3975-.7100035-.2650013-1.2999976-.6424975-1.77-1.1325l1.68-1.71c.2600013.3200016.6024979.5874989 1.0275.8025s.8474979.3225 1.2675.3225c.190001 0 .3749991-.0199998.555-.06s.3374993-.1049995.4725-.195c.1350007-.0900004.2424996-.2099992.3225-.36.0800004-.1500007.12-.3299989.12-.54 0-.200001-.0499995-.3699993-.15-.51s-.2424991-.2674994-.4275-.3825-.4149986-.2199995-.69-.315-.5874982-.1974994-.9375-.3075c-.3400017-.1100006-.6724984-.2399993-.9975-.39s-.6149987-.3424988-.87-.5775-.4599992-.5199983-.615-.855-.2325-.7424976-.2325-1.2225c0-.590003.1199988-1.0949979.36-1.515s.5549981-.7649987.945-1.035c.390002-.2700013.8299976-.4674994 1.32-.5925.4900025-.1250006.9849975-.1875 1.485-.1875.600003 0 1.2124969.1099989 1.8375.33s1.1724977.5449978 1.6425.975zm14.31.51c0 .6200031-.1149988 1.1424979-.345 1.5675-.2300011.4250021-.539998.7674987-.93 1.0275-.3900019.2600013-.8399974.4499994-1.35.57-.5100025.1200006-1.0399972.18-1.59.18h-1.275v4.005h-2.565v-10.62h3.9c.5800029 0 1.1224975.0574994 1.6275.1725s.9449981.2999987 1.32.555.6699989.5899979.885 1.005.3225.9274969.3225 1.5375zm-2.565.015c0-.2500012-.0499995-.4549992-.15-.615s-.2349992-.2849995-.405-.375c-.1700009-.0900005-.3624989-.1499998-.5775-.18-.2150011-.0300001-.4374989-.045-.6675-.045h-1.125v2.505h1.08c.2400012 0 .4699989-.0199998.69-.06s.4174991-.1099995.5925-.21.3124995-.2324992.4125-.3975.15-.3724987.15-.6225zm13.41 7.335-.825-2.085h-4.11l-.78 2.085h-2.79l4.455-10.62h2.49l4.41 10.62zm-2.85-7.785-1.35 3.645h2.67zm18.66 6.315c-.470002.5400027-1.049997.9674984-1.74 1.2825s-1.484995.4725-2.385.4725c-.8200041 0-1.5774965-.1349987-2.2725-.405s-1.2974974-.6524975-1.8075-1.1475c-.5100025-.4950025-.9099985-1.0874966-1.2-1.7775-.2900014-.6900035-.435-1.4499959-.435-2.28 0-.8500043.1474985-1.6199966.4425-2.31.2950015-.6900035.7024974-1.2774976 1.2225-1.7625s1.1299965-.8574987 1.83-1.1175 1.454996-.39 2.265-.39c.750004 0 1.487496.1324987 2.2125.3975s1.312498.6524974 1.7625 1.1625l-1.74 1.74c-.240001-.3300017-.554998-.5749992-.945-.735s-.789998-.24-1.2-.24c-.4500022 0-.8624981.0824992-1.2375.2475s-.6974986.3924985-.9675.6825c-.2700013.2900014-.4799992.632498-.63 1.0275-.1500007.395002-.225.8274976-.225 1.2975 0 .4800024.0749993.919998.225 1.32.1500008.400002.3574987.7424986.6225 1.0275s.5824982.5074992.9525.6675c.3700019.1600008.7749978.24 1.215.24.510003 0 .954998-.099999 1.335-.3s.684999-.4599984.915-.78zm4.095 1.47v-10.62h7.14v2.175h-4.665v1.995h4.41v2.055h-4.41v2.205h4.935v2.19zm16.65-8.43v8.43h-2.565v-8.43h-3v-2.19h8.565v2.19zm7.17 8.43v-10.62h2.58v10.62zm17.4 0 .06-7.515h-.045l-2.76 7.515h-1.8l-2.685-7.515h-.045l.06 7.515h-2.415v-10.62h3.645l2.415 6.81h.06l2.31-6.81h3.705v10.62zm7.695 0v-10.62h7.14v2.175h-4.665v1.995h4.41v2.055h-4.41v2.205h4.935v2.19zm-125.1756864 4.6882274-3.1215666-1.2500644c-.8781165-.3518282-1.8177345.3480743-1.7326748 1.290315l.3018786 3.3499806c.1163317 1.2882294-1.5440006 1.9026254-2.2939021.8490177l-1.9503276-2.7397557c-.5487186-.7706019-1.7174558-.6901006-2.1552632.1484895l-1.556301 2.9814681c-.5983367 1.1464137-2.3272589.7653881-2.3887604-.5261783l-.1601124-3.3597825c-.0448232-.9451604-1.0715857-1.5095038-1.8934127-1.0406775l-2.9203837 1.6663353c-1.1230801.6408822-2.37145657-.6146045-1.72516949-1.734532l1.68118029-2.9130629c.472832-.8191946-.0858936-1.8492359-1.0305151-1.8992886l-3.35735717-.1776868c-1.2911148-.0684052-1.66283411-1.799809-.51369399-2.3920984l2.98855654-1.5414123c.84059012-.4335809.92710922-1.6023097.15948697-2.1551827l-2.72837387-1.9653998c-1.04927834-.7555861-.42613251-2.4131622.86060422-2.2901162l3.3471416.3195026c.9417028.0900947 1.6461557-.846515 1.2992455-1.7266071l-1.2331574-3.12891475c-.4742913-1.20334856.9456639-2.26071029 1.961794-1.46132813l2.6428972 2.07926948c.7436471.5847815 1.8423351.178104 2.0262142-.74995515l.6535839-3.29930228c.251218-1.26862552 2.017458-1.39021169 2.4402549-.16830196l1.0995219 3.17855032c.3095924.89406504 1.4535205 1.14620517 2.1100231.46486377l2.3328879-2.42213001c.8970881-.9311874 2.4483856-.07862433 2.1435883 1.17832224l-.7926399 3.26885357c-.2228648.9192999.6033403 1.7501735 1.5235697 1.5318189l3.271672-.7756071c1.2579665-.2984388 2.1023093 1.2581979 1.1666524 2.1505945l-2.4333751 2.320982c-.6846473.6529782-.4384328 1.7987662.4536518 2.113055l3.1716018 1.1165907c1.2196062.4294098 1.088681 2.1954333-.180752 2.4402741l-3.301693.6365025c-.9287771.1791467-1.3411499 1.2759249-.7603255 2.0227518l2.064783 2.6548747c.7936822 1.0206565-.2708151 2.4356859-1.4710328 1.9549722z"/><mask id="b" fill="#fff"><use fill="none" xlink:href="#a"/></mask></defs><g fill="none" fill-rule="evenodd"><path d="m0 0h175v40h-175z"/><g fill="#fff"><use xlink:href="#a"/><g mask="url(#b)"><path d="m0 0h175v40h-175z"/></g></g></g></svg>

<?xml version="1.0" encoding="UTF-8"?>
<svg width="175px" height="40px" viewBox="0 0 175 40" version="1.1" xmlns="http://www.w3.org/2000/svg" xmlns:xlink="http://www.w3.org/1999/xlink">
    <!-- Generator: Sketch 49 (51002) - http://www.bohemiancoding.com/sketch -->
    <title>Brand/Logo/logo-03</title>
    <desc>Created with Sketch.</desc>
    <defs>
        <path d="M62.705,17.14 C62.4849989,16.8599986 62.1975018,16.6375008 61.8425,16.4725 C61.4874982,16.3074992 61.1450017,16.225 60.815,16.225 C60.6449992,16.225 60.4725009,16.2399999 60.2975,16.27 C60.1224991,16.3000002 59.9650007,16.3574996 59.825,16.4425 C59.6849993,16.5275004 59.5675005,16.6374993 59.4725,16.7725 C59.3774995,16.9075007 59.33,17.0799989 59.33,17.29 C59.33,17.4700009 59.3674996,17.6199994 59.4425,17.74 C59.5175004,17.8600006 59.6274993,17.9649995 59.7725,18.055 C59.9175007,18.1450005 60.089999,18.2274996 60.29,18.3025 C60.490001,18.3775004 60.7149988,18.4549996 60.965,18.535 C61.3250018,18.6550006 61.6999981,18.7874993 62.09,18.9325 C62.480002,19.0775007 62.8349984,19.2699988 63.155,19.51 C63.4750016,19.7500012 63.739999,20.0474982 63.95,20.4025 C64.1600011,20.7575018 64.265,21.1999974 64.265,21.73 C64.265,22.340003 64.1525011,22.8674978 63.9275,23.3125 C63.7024989,23.7575022 63.4000019,24.1249986 63.02,24.415 C62.6399981,24.7050015 62.2050025,24.9199993 61.715,25.06 C61.2249976,25.2000007 60.7200026,25.27 60.2,25.27 C59.4399962,25.27 58.7050036,25.1375013 57.995,24.8725 C57.2849965,24.6074987 56.6950024,24.2300025 56.225,23.74 L57.905,22.03 C58.1650013,22.3500016 58.5074979,22.6174989 58.9325,22.8325 C59.3575021,23.0475011 59.7799979,23.155 60.2,23.155 C60.390001,23.155 60.5749991,23.1350002 60.755,23.095 C60.9350009,23.0549998 61.0924993,22.9900005 61.2275,22.9 C61.3625007,22.8099996 61.4699996,22.6900008 61.55,22.54 C61.6300004,22.3899993 61.67,22.2100011 61.67,22 C61.67,21.799999 61.6200005,21.6300007 61.52,21.49 C61.4199995,21.3499993 61.2775009,21.2225006 61.0925,21.1075 C60.9074991,20.9924994 60.6775014,20.8875005 60.4025,20.7925 C60.1274986,20.6974995 59.8150018,20.5950006 59.465,20.485 C59.1249983,20.3749994 58.7925016,20.2450007 58.4675,20.095 C58.1424984,19.9449993 57.8525013,19.7525012 57.5975,19.5175 C57.3424987,19.2824988 57.1375008,18.9975017 56.9825,18.6625 C56.8274992,18.3274983 56.75,17.9200024 56.75,17.44 C56.75,16.849997 56.8699988,16.3450021 57.11,15.925 C57.3500012,15.5049979 57.6649981,15.1600013 58.055,14.89 C58.445002,14.6199987 58.8849976,14.4225006 59.375,14.2975 C59.8650025,14.1724994 60.3599975,14.11 60.86,14.11 C61.460003,14.11 62.0724969,14.2199989 62.6975,14.44 C63.3225031,14.6600011 63.8699977,14.9849978 64.34,15.415 L62.705,17.14 Z M77.015,17.65 C77.015,18.2700031 76.9000012,18.7924979 76.67,19.2175 C76.4399989,19.6425021 76.130002,19.9849987 75.74,20.245 C75.3499981,20.5050013 74.9000026,20.6949994 74.39,20.815 C73.8799975,20.9350006 73.3500028,20.995 72.8,20.995 L71.525,20.995 L71.525,25 L68.96,25 L68.96,14.38 L72.86,14.38 C73.4400029,14.38 73.9824975,14.4374994 74.4875,14.5525 C74.9925025,14.6675006 75.4324981,14.8524987 75.8075,15.1075 C76.1825019,15.3625013 76.4774989,15.6974979 76.6925,16.1125 C76.9075011,16.5275021 77.015,17.0399969 77.015,17.65 Z M74.45,17.665 C74.45,17.4149988 74.4000005,17.2100008 74.3,17.05 C74.1999995,16.8899992 74.0650008,16.7650005 73.895,16.675 C73.7249991,16.5849995 73.5325011,16.5250002 73.3175,16.495 C73.1024989,16.4649999 72.8800011,16.45 72.65,16.45 L71.525,16.45 L71.525,18.955 L72.605,18.955 C72.8450012,18.955 73.0749989,18.9350002 73.295,18.895 C73.5150011,18.8549998 73.7124991,18.7850005 73.8875,18.685 C74.0625009,18.5849995 74.1999995,18.4525008 74.3,18.2875 C74.4000005,18.1224992 74.45,17.9150013 74.45,17.665 Z M87.86,25 L87.035,22.915 L82.925,22.915 L82.145,25 L79.355,25 L83.81,14.38 L86.3,14.38 L90.71,25 L87.86,25 Z M85.01,17.215 L83.66,20.86 L86.33,20.86 L85.01,17.215 Z M103.67,23.53 C103.199998,24.0700027 102.620003,24.4974984 101.93,24.8125 C101.239997,25.1275016 100.445005,25.285 99.545,25.285 C98.7249959,25.285 97.9675035,25.1500013 97.2725,24.88 C96.5774965,24.6099987 95.9750026,24.2275025 95.465,23.7325 C94.9549975,23.2374975 94.5550015,22.6450034 94.265,21.955 C93.9749986,21.2649965 93.83,20.5050041 93.83,19.675 C93.83,18.8249957 93.9774985,18.0550034 94.2725,17.365 C94.5675015,16.6749965 94.9749974,16.0875024 95.495,15.6025 C96.0150026,15.1174976 96.6249965,14.7450013 97.325,14.485 C98.0250035,14.2249987 98.779996,14.095 99.59,14.095 C100.340004,14.095 101.077496,14.2274987 101.8025,14.4925 C102.527504,14.7575013 103.114998,15.1449974 103.565,15.655 L101.825,17.395 C101.584999,17.0649983 101.270002,16.8200008 100.88,16.66 C100.489998,16.4999992 100.090002,16.42 99.68,16.42 C99.2299978,16.42 98.8175019,16.5024992 98.4425,16.6675 C98.0674981,16.8325008 97.7450014,17.0599985 97.475,17.35 C97.2049987,17.6400014 96.9950008,17.982498 96.845,18.3775 C96.6949993,18.772502 96.62,19.2049976 96.62,19.675 C96.62,20.1550024 96.6949993,20.594998 96.845,20.995 C96.9950008,21.395002 97.2024987,21.7374986 97.4675,22.0225 C97.7325013,22.3075014 98.0499982,22.5299992 98.42,22.69 C98.7900019,22.8500008 99.1949978,22.93 99.635,22.93 C100.145003,22.93 100.589998,22.830001 100.97,22.63 C101.350002,22.429999 101.654999,22.1700016 101.885,21.85 L103.67,23.53 Z M107.765,25 L107.765,14.38 L114.905,14.38 L114.905,16.555 L110.24,16.555 L110.24,18.55 L114.65,18.55 L114.65,20.605 L110.24,20.605 L110.24,22.81 L115.175,22.81 L115.175,25 L107.765,25 Z M124.415,16.57 L124.415,25 L121.85,25 L121.85,16.57 L118.85,16.57 L118.85,14.38 L127.415,14.38 L127.415,16.57 L124.415,16.57 Z M131.585,25 L131.585,14.38 L134.165,14.38 L134.165,25 L131.585,25 Z M148.985,25 L149.045,17.485 L149,17.485 L146.24,25 L144.44,25 L141.755,17.485 L141.71,17.485 L141.77,25 L139.355,25 L139.355,14.38 L143,14.38 L145.415,21.19 L145.475,21.19 L147.785,14.38 L151.49,14.38 L151.49,25 L148.985,25 Z M156.68,25 L156.68,14.38 L163.82,14.38 L163.82,16.555 L159.155,16.555 L159.155,18.55 L163.565,18.55 L163.565,20.605 L159.155,20.605 L159.155,22.81 L164.09,22.81 L164.09,25 L156.68,25 Z M31.5043136,29.6882274 L28.382747,28.438163 C27.5046305,28.0863348 26.5650125,28.7862373 26.6500722,29.728478 L26.9519508,33.0784586 C27.0682825,34.366688 25.4079502,34.981084 24.6580487,33.9274763 L22.7077211,31.1877206 C22.1590025,30.4171187 20.9902653,30.49762 20.5524579,31.3362101 L18.9961569,34.3176782 C18.3978202,35.4640919 16.668898,35.0830663 16.6073965,33.7914999 L16.4472841,30.4317174 C16.4024609,29.486557 15.3756984,28.9222136 14.5538714,29.3910399 L11.6334877,31.0573752 C10.5104076,31.6982574 9.26203113,30.4427707 9.90831821,29.3228432 L11.5894985,26.4097803 C12.0623305,25.5905857 11.5036049,24.5605444 10.5589834,24.5104917 L7.20162623,24.3328049 C5.91051143,24.2643997 5.53879212,22.5329959 6.68793224,21.9407065 L9.67648878,20.3992942 C10.5170789,19.9657133 10.603598,18.7969845 9.83597575,18.2441115 L7.10760188,16.2787117 C6.05832354,15.5231256 6.68146937,13.8655495 7.9682061,13.9885955 L11.3153477,14.3080981 C12.2570505,14.3981928 12.9615034,13.4615831 12.6145932,12.581491 L11.3814358,9.45257625 C10.9071445,8.24922769 12.3270997,7.19186596 13.3432298,7.99124812 L15.986127,10.0705176 C16.7297741,10.6552991 17.8284621,10.2486216 18.0123412,9.32056245 L18.6659251,6.02126017 C18.9171431,4.75263465 20.6833831,4.63104848 21.10618,5.85295821 L22.2057019,9.03150853 C22.5152943,9.92557357 23.6592224,10.1777137 24.315725,9.4963723 L26.6486129,7.07424229 C27.545701,6.14305489 29.0969985,6.99561796 28.7922012,8.25256453 L27.9995613,11.5214181 C27.7766965,12.440718 28.6029016,13.2715916 29.523131,13.053237 L32.794803,12.2776299 C34.0527695,11.9791911 34.8971123,13.5358278 33.9614554,14.4282244 L31.5280803,16.7492064 C30.843433,17.4021846 31.0896475,18.5479726 31.9817321,18.8622614 L35.1533339,19.9788521 C36.3729401,20.4082619 36.2420149,22.1742854 34.9725819,22.4191262 L31.6708889,23.0556287 C30.7421118,23.2347754 30.329739,24.3315536 30.9105634,25.0783805 L32.9753464,27.7332552 C33.7690286,28.7539117 32.7045313,30.1689411 31.5043136,29.6882274 Z" id="path-1"></path>
    </defs>
    <g id="Brand/Logo/logo-03" stroke="none" stroke-width="1" fill="none" fill-rule="evenodd">
        <rect id="#" x="0" y="0" width="175" height="40"></rect>
        <mask id="mask-2" fill="white">
            <use xlink:href="#path-1"></use>
        </mask>
        <use id="Combined-Shape" fill="#FFFFFF" xlink:href="#path-1"></use>
        <g id="Brand/Color/White" mask="url(#mask-2)" fill="#FFFFFF">
            <rect id="Color" x="0" y="0" width="175" height="40"></rect>
        </g>
    </g>
</svg>
